X:1
T:The Manchester Hornpipe
T:Rickett's Hornpipe
M:4/4
R:hornpipe
Z:Richard Robinson 
K:D
(3ABc | dcdA FAdf | edcB A2g2 | fgaf gfed | cdec A2 (3ABc |
dcdA FAdf | edcB A2g2 | fgaf bgec | d2f2 d2 ::
fg | afaf d2ga | bgbg e2fg | afaf bagf | edcB A2 (3ABc |
dcdA FAdf | edcB A2g2 | fgaf bgec | d2f2 d2 :|
